X: 8257
T: Coridinio
R: hornpipe
M: 4/4
K: Gmajor
|:DGB|AGFG AGFE|F2DF AcAF|d2DF AcAF|d2B3DGB|
AGFG AGF=F|E2CE GcBA|dBGB cAFD|G2GF G:|
|:_B_BA|AGG=F =F_E_ED|D3F ADFA|D/D/D DF ADFA|_B2G3_B_BA|
AGG=F =F_E_ED|C3D _E=FGA|_BGD_B AFDF|G2GF G:|
|:Bcc|d2Bc dBcd|e2cd ecde|f2de fdef|g2bb2Bcc|
d2Bc dBcd|e2cd ecde|f2fg fdef|gdBd G:|

